dist/svg/u1F1EF.svg

<svg id="Layer_1" data-name="Layer 1" xmlns="http://www.w3.org/2000/svg" viewBox="0 0 40 40"><defs><style>.cls-1{fill:#afb7c0;}.cls-2{fill:none;}</style></defs><path class="cls-1" d="M28.5,7.1a4.405,4.405,0,0,1,4.4,4.4v17a4.405,4.405,0,0,1-4.4,4.4h-17a4.405,4.405,0,0,1-4.4-4.4v-17a4.405,4.405,0,0,1,4.4-4.4h17m0-3.6h-17a8,8,0,0,0-8,8v17a8,8,0,0,0,8,8h17a8,8,0,0,0,8-8v-17a8,8,0,0,0-8-8Z"/><path class="cls-1" d="M19.521,26.1c1.44,0,2.256-1.007,2.256-2.855V11.1h3.817V23.152c0,4.033-2.041,6.217-6.169,6.217-3.384,0-6.12-1.993-6.481-5.449h4.177A2.19,2.19,0,0,0,19.521,26.1Z"/><rect class="cls-2" width="40" height="40"/></svg>

<?xml version="1.0" encoding="UTF-8"?><svg id="a" xmlns="http://www.w3.org/2000/svg" viewBox="0 0 40 40"><g><path d="M28.5,3.5H11.5C7.082,3.5,3.5,7.082,3.5,11.5V28.5c0,4.418,3.582,8,8,8H28.5c4.418,0,8-3.582,8-8V11.5c0-4.418-3.582-8-8-8Zm4.4,25c0,2.426-1.974,4.4-4.4,4.4H11.5c-2.426,0-4.4-1.974-4.4-4.4V11.5c0-2.426,1.974-4.4,4.4-4.4H28.5c2.426,0,4.4,1.974,4.4,4.4V28.5Z" fill="#afb7c0"/><path d="M21.777,23.249c0,1.848-.816,2.856-2.257,2.856-1.2,0-2.208-.528-2.399-2.184h-4.177c.36,3.456,3.097,5.448,6.48,5.448,4.128,0,6.169-2.184,6.169-6.216V11.103h-3.816v12.146Z" fill="#afb7c0"/></g><rect width="40" height="40" fill="none"/></svg>
